svgs/sharp-solid/square-z.svg

<svg xmlns="http://www.w3.org/2000/svg" viewBox="0 0 448 512"><!--! Font Awesome Pro 6.6.0 by @fontawesome - https://fontawesome.com License - https://fontawesome.com/license (Commercial License) Copyright 2024 Fonticons, Inc. --><path d="M448 32L0 32 0 480l448 0 0-448zM336 160.8l-5.7 6.7L187.7 336 312 336l24 0 0 48-24 0-176 0-24 0 0-32.8 5.7-6.7L260.3 176 136 176l-24 0 0-48 24 0 176 0 24 0 0 32.8z"/></svg>

<svg xmlns="http://www.w3.org/2000/svg" viewBox="0 0 448 512"><!--! Font Awesome Pro 6.5.2 by @fontawesome - https://fontawesome.com License - https://fontawesome.com/license (Commercial License) Copyright 2024 Fonticons, Inc. --><path d="M448 32H0V480H448V32zM336 160.8l-5.7 6.7L187.7 336H312h24v48H312 136 112V351.2l5.7-6.7L260.3 176H136 112V128h24H312h24v32.8z"/></svg>
